X: 335
T: Westphalia Waltz
C:Trad.
B: canberra pickers and fiddlers
B: good tune book
B: tunes
M:3/4
L:1/8
R: waltz
Q: 1/4=120
K:G
V:1 
DEF|"G"G4A2|"Em"B4e2|"Bm"d6-|d3DEF|"G"G4A2|"E"B4c2|"Am"A4-AB|A4G2|
"D"F4A2|"Am"c4g2|"D"f4-fg|f4e2|"G"d3^cde|1"D7"d2^c2=c2|"G"B4-Bc|B3:|2"D"d2F2A2|"G"G6|G2B2d2|
|:"G"g6|"Bm"f6|"Em"e2f2g2|"Bm"B6|"G"B2A2B2|"Em"B2A2G2|"Am"c3Bcd|"D"c6|
"Em"e6|"C"e6|"Am7"e2f2g2|"D"f4e2|"G"d3^cde|1"D7"d2^c2=c2|"G"B4-Bc|B4d2:|2"D"d2F2A2|"G"G6|G3|]
% abcbook-tune_id 63da59348ffd7f470ff9c278
% abcbook-tune_composer_id 
% abcbook-link-0 https://www.youtube.com/watch?v=YOyMsynIoWo
% abcbook-boost 0
% abcbook-difficulty 0
% abcbook-tags canberra pickers and fiddlers,good tune book,old time tunes,© free
% abcbook-tablature 
% abcbook-transpose 
% abcbook-tuning GDAD
% abcbook-lastupdated 1675421950994
% abcbook-src-url https://tunebook.net/scrape/tunes.abc
% abcbook-soundfonts 
% abcbook-repeats 1
%%gchordfont "itim-music,Itim" 20

